assets/svgs/pages/mentoring/retainer.svg

<svg viewBox="0 0 87.5 88.38" xmlns="http://www.w3.org/2000/svg"><path d="m74.34 73.75a.79.79 0 0 1 -.54-.22.75.75 0 0 1 0-1.06 41.57 41.57 0 0 0 -43.66-68.47 43 43 0 0 0 -6.71 3.23.75.75 0 1 1 -.75-1.23 42.85 42.85 0 0 1 7-3.35 43.07 43.07 0 0 1 45.19 70.88.79.79 0 0 1 -.53.22z" fill="#ff7c6c"/><path d="m43.14 88.37a43.05 43.05 0 0 1 -30.51-73.52.75.75 0 0 1 1.06 0 .74.74 0 0 1 0 1.06 41.56 41.56 0 0 0 43.67 68.44 42.67 42.67 0 0 0 6.7-3.23.75.75 0 0 1 .76 1.3 43.91 43.91 0 0 1 -6.95 3.35 42.91 42.91 0 0 1 -14.73 2.6z" fill="#ff7c6c"/><path d="m82.31 74.8h-9.49v-9.48a.75.75 0 0 1 1.5 0v8h8a.75.75 0 0 1 0 1.5z" fill="#ff7c6c"/><path d="m14 24.41a.75.75 0 0 1 -.75-.75v-8h-8a.75.75 0 0 1 0-1.5h9.48v9.48a.74.74 0 0 1 -.73.77z" fill="#ff7c6c"/><g fill="#c4c4c4"><path d="m60.25 54.64a8.4 8.4 0 0 1 -7.25-12.64l.38-.74a11.49 11.49 0 0 0 -9.98-17.26h-.4a11.49 11.49 0 0 0 -9.58 17.24l.37.73a.77.77 0 0 1 -.29 1 .72.72 0 0 1 -1-.26s0-.08 0-.09l-.36-.7a13 13 0 0 1 11.26-19.38h.75a13 13 0 0 1 10.51 19.46l-.41.77a6.9 6.9 0 0 0 8.28 10 .75.75 0 0 1 .5 1.42 8.37 8.37 0 0 1 -2.78.45z"/><path d="m26.54 54.64a8.21 8.21 0 0 1 -2.76-.47.75.75 0 1 1 .5-1.41 6.91 6.91 0 0 0 8.26-10 .75.75 0 0 1 1.3-.75 8.4 8.4 0 0 1 -7.3 12.6z"/><path d="m60.18 60.68a17.63 17.63 0 0 1 -15.18-8.8.74.74 0 0 1 .27-1 .75.75 0 0 1 1 .27 16.11 16.11 0 0 0 13.93 8 .75.75 0 0 1 0 1.5z"/><path d="m38.3 63.54a.75.75 0 0 1 -.38-1.4 22 22 0 0 0 6.1-5.4.75.75 0 0 1 1.19.92 23.66 23.66 0 0 1 -6.52 5.77.79.79 0 0 1 -.39.11z"/><path d="m26.64 60.68a.75.75 0 1 1 0-1.5 16.11 16.11 0 0 0 13.93-8 .75.75 0 0 1 1-.27.74.74 0 0 1 .27 1 17.63 17.63 0 0 1 -15.2 8.77z"/><circle cx="48.27" cy="39.2" r="1.44"/><circle cx="38.77" cy="39.2" r="1.44"/></g></svg>

<svg id="Layer_1" data-name="Layer 1" xmlns="http://www.w3.org/2000/svg" viewBox="0 0 87.5 88.38"><defs><style>.cls-1{fill:#ff7c6c;}.cls-2{fill:#c4c4c4;}</style></defs><path class="cls-1" d="M74.34,73.75a.79.79,0,0,1-.54-.22.75.75,0,0,1,0-1.06A41.57,41.57,0,0,0,30.14,4a43,43,0,0,0-6.71,3.23A.75.75,0,1,1,22.68,6a42.85,42.85,0,0,1,7-3.35A43.07,43.07,0,0,1,74.87,73.53.79.79,0,0,1,74.34,73.75Z"/><path class="cls-1" d="M43.14,88.37A43.05,43.05,0,0,1,12.63,14.85a.75.75,0,0,1,1.06,0,.74.74,0,0,1,0,1.06A41.56,41.56,0,0,0,57.36,84.35a42.67,42.67,0,0,0,6.7-3.23.75.75,0,0,1,.76,1.3,43.91,43.91,0,0,1-6.95,3.35A42.91,42.91,0,0,1,43.14,88.37Z"/><path class="cls-1" d="M82.31,74.8H72.82V65.32a.75.75,0,0,1,1.5,0v8h8a.75.75,0,0,1,0,1.5Z"/><path class="cls-1" d="M14,24.41a.75.75,0,0,1-.75-.75v-8h-8a.75.75,0,0,1,0-1.5h9.48v9.48A.74.74,0,0,1,14,24.41Z"/><path class="cls-2" d="M60.25,54.64A8.4,8.4,0,0,1,53,42l.38-.74A11.49,11.49,0,0,0,43.4,24H43a11.49,11.49,0,0,0-9.58,17.24l.37.73a.77.77,0,0,1-.29,1,.72.72,0,0,1-1-.26s0-.08,0-.09l-.36-.7A13,13,0,0,1,43.4,22.54l.75,0A13,13,0,0,1,54.66,42l-.41.77a6.9,6.9,0,0,0,8.28,10,.75.75,0,0,1,.5,1.42A8.37,8.37,0,0,1,60.25,54.64Z"/><path class="cls-2" d="M26.54,54.64a8.21,8.21,0,0,1-2.76-.47.75.75,0,1,1,.5-1.41,6.91,6.91,0,0,0,8.26-10,.75.75,0,0,1,1.3-.75,8.4,8.4,0,0,1-7.3,12.6Z"/><path class="cls-2" d="M60.18,60.68A17.63,17.63,0,0,1,45,51.88a.74.74,0,0,1,.27-1,.75.75,0,0,1,1,.27,16.11,16.11,0,0,0,13.93,8,.75.75,0,0,1,0,1.5Z"/><path class="cls-2" d="M38.3,63.54a.75.75,0,0,1-.38-1.4,22,22,0,0,0,6.1-5.4.75.75,0,0,1,1.19.92,23.66,23.66,0,0,1-6.52,5.77A.79.79,0,0,1,38.3,63.54Z"/><path class="cls-2" d="M26.64,60.68a.75.75,0,1,1,0-1.5,16.11,16.11,0,0,0,13.93-8,.75.75,0,0,1,1-.27.74.74,0,0,1,.27,1A17.63,17.63,0,0,1,26.64,60.68Z"/><circle class="cls-2" cx="48.27" cy="39.2" r="1.44"/><circle class="cls-2" cx="38.77" cy="39.2" r="1.44"/></svg>
